!!!Genre:	Sher
!!!Mode:	Minor
!!!Edition:	2015
!!!Listening/dance:	dance
!!!Free rhythm?:	No
!!!Secondary Modes:	All minor
!!!One_Mode:	yes
**kern
*I"P1
*clefG2
*k[b-e-]
*g:
*M2/4
*>A
=1
8gL
8ggJ
4dd
=2
(16ddLL
16cc)
(16cc
16b-JJ)
4dd
=3
(16ddLL
16cc)
(16cc
16b-JJ)
(16b-LL
16a)
(16a
16gJJ)
=4
16gLL
16a
16b-
16ccJJ
4dd
=5
8gL
8ggJ
4dd
=6
(16ddLL
16cc)
(16cc
16b-JJ)
4dd
=7
(16ddLL
16cc)
(16cc
16b-JJ)
(16b-LL
16a)
(16a
16gJJ)
=8
(16aLL
16b-JJ)
4g
8d
=9:|!
(16aLL
16b-JJ
4g)
8f
=10!|:
*>B
8fL
16b-L
16b-JJ
16b-LL
16b-
16b-
16b-JJ
=11
(16ccLL
16ddJJ)
4b-
8ff
=12
(16ffLL
16ee-)
(16ee-
16ddJJ)
(16ddLL
16cc)
(16cc
16b-JJ)
=13
(16ccLL
16ddJJ)
4b-
8b-
=14
8fL
16b-L
16b-JJ
16b-LL
16b-
16b-
16b-JJ
=15
(16ccLL
16ddJJ)
4b-
8ff
=16
(16ddLL
16cc)
(16cc
16b-JJ)
(16b-LL
16a)
(16a
16gJJ)
=17
2g
=:|!
*-
